img/illustrations/The_place_of_provision_of electronic_services_is_the_Republic_of_Belarus.svg

<svg width="145" height="145" viewBox="0 0 145 145" fill="none" xmlns="http://www.w3.org/2000/svg">
<path d="M140 121L5 121.16" stroke="#007B64" stroke-width="2" stroke-miterlimit="10" stroke-linecap="round"/>
<path d="M117.41 34H23.8699C20.0149 34 16.8899 37.1251 16.8899 40.98V113.02C16.8899 116.875 20.0149 120 23.8699 120H117.41C121.265 120 124.39 116.875 124.39 113.02V40.98C124.39 37.1251 121.265 34 117.41 34Z" fill="white"/>
<path d="M16.6399 109.92H124.64V112.39C124.64 114.512 123.797 116.547 122.297 118.047C120.796 119.547 118.762 120.39 116.64 120.39H24.6399C22.5182 120.39 20.4833 119.547 18.983 118.047C17.4827 116.547 16.6399 114.512 16.6399 112.39V109.92V109.92Z" fill="#EBEBEB"/>
<path d="M25.6699 46.04L115.61 46.14" stroke="#007B64" stroke-width="2" stroke-miterlimit="10" stroke-linecap="round"/>
<path d="M112.08 39.64H91.6201C91.0623 39.64 90.6101 40.0922 90.6101 40.65C90.6101 41.2078 91.0623 41.66 91.6201 41.66H112.08C112.638 41.66 113.09 41.2078 113.09 40.65C113.09 40.0922 112.638 39.64 112.08 39.64Z" fill="#FFC463"/>
<path d="M30.2866 40.6927C30.2875 39.9167 29.6592 39.2869 28.8833 39.286C28.1073 39.285 27.4775 39.9133 27.4766 40.6893C27.4756 41.4652 28.1039 42.095 28.8798 42.096C29.6558 42.0969 30.2856 41.4687 30.2866 40.6927Z" fill="#C4C4C4"/>
<path d="M34.5065 40.6979C34.5075 39.9219 33.8792 39.2921 33.1032 39.2911C32.3273 39.2902 31.6975 39.9185 31.6965 40.6944C31.6956 41.4704 32.3239 42.1002 33.0998 42.1011C33.8758 42.1021 34.5056 41.4738 34.5065 40.6979Z" fill="#C4C4C4"/>
<path d="M38.7165 40.703C38.7174 39.927 38.0892 39.2972 37.3132 39.2963C36.5372 39.2953 35.9074 39.9236 35.9065 40.6996C35.9055 41.4755 36.5338 42.1053 37.3098 42.1063C38.0857 42.1072 38.7155 41.479 38.7165 40.703Z" fill="#C4C4C4"/>
<path d="M16.6399 88.84V41.69C16.6399 40.6972 16.8354 39.7141 17.2154 38.7969C17.5953 37.8797 18.1522 37.0463 18.8542 36.3443C19.5562 35.6423 20.3896 35.0854 21.3068 34.7055C22.224 34.3255 23.2071 34.13 24.1999 34.13H117.08C119.084 34.1327 121.006 34.93 122.423 36.3472C123.84 37.7644 124.637 39.6858 124.64 41.69V113C124.64 115.005 123.843 116.928 122.426 118.346C121.008 119.764 119.085 120.56 117.08 120.56H24.1999C23.2067 120.561 22.2231 120.367 21.3053 119.987C20.3874 119.608 19.5535 119.051 18.8512 118.349C18.149 117.646 17.5921 116.812 17.2127 115.895C16.8332 114.977 16.6386 113.993 16.6399 113V99.73" stroke="#007B64" stroke-width="2" stroke-miterlimit="10" stroke-linecap="round"/>
<path d="M67.3 82.28C68.3944 83.7693 68.9578 85.5827 68.9 87.43C68.9567 88.7359 68.6764 90.0345 68.0863 91.2009C67.4961 92.3672 66.6158 93.3622 65.53 94.09C63.29 95.65 60.0166 96.4267 55.71 96.42H38.71V63.42H54.81C58.81 63.42 61.8933 64.19 64.06 65.73C65.0761 66.4225 65.9012 67.3601 66.4588 68.456C67.0164 69.552 67.2885 70.7709 67.25 72C67.2842 73.5011 66.8905 74.9808 66.1149 76.2664C65.3393 77.552 64.2138 78.5903 62.87 79.26C64.6286 79.7733 66.1795 80.8306 67.3 82.28V82.28ZM46.25 69.21V77H53.83C55.3238 77.0937 56.8123 76.7459 58.11 76C58.5871 75.6831 58.9729 75.2468 59.2291 74.7346C59.4852 74.2223 59.6027 73.6518 59.57 73.08C59.6032 72.5109 59.4858 71.9431 59.2294 71.4339C58.9731 70.9247 58.5869 70.4922 58.11 70.18C56.8082 69.4443 55.3229 69.0973 53.83 69.18L46.25 69.21ZM59.69 89.69C60.1934 89.3614 60.6004 88.9049 60.8693 88.3672C61.1381 87.8294 61.2592 87.2299 61.22 86.63C61.22 83.9033 59.1966 82.5367 55.15 82.53H46.25V90.68H55.15C56.7262 90.7818 58.2993 90.4388 59.69 89.69Z" fill="#FFC463"/>
<path d="M89.7999 84.75V96.42H82.1799V84.65L69.3999 63.46H77.4899L86.2999 78.11L95.0999 63.46H102.59L89.7999 84.75Z" fill="#FFC463"/>
</svg>

<svg width="145" height="145" fill="none" xmlns="http://www.w3.org/2000/svg"><path d="M140 121l-135 .16" stroke="#007B64" stroke-width="2" stroke-miterlimit="10" stroke-linecap="round"/><path d="M117.41 34H23.87a6.98 6.98 0 00-6.98 6.98v72.04a6.98 6.98 0 006.98 6.98h93.54a6.98 6.98 0 006.98-6.98V40.98a6.98 6.98 0 00-6.98-6.98z" fill="#fff"/><path d="M16.64 109.92h108v2.47a8 8 0 01-8 8h-92a8.001 8.001 0 01-8-8v-2.47z" fill="#EBEBEB"/><path d="M25.67 46.04l89.94.1" stroke="#007B64" stroke-width="2" stroke-miterlimit="10" stroke-linecap="round"/><path d="M112.08 39.64H91.62a1.01 1.01 0 000 2.02h20.46a1.01 1.01 0 100-2.02z" fill="#FFC463"/><path d="M30.287 40.693a1.405 1.405 0 10-2.81-.004 1.405 1.405 0 002.81.004zm4.22.005a1.405 1.405 0 10-2.81-.004 1.405 1.405 0 002.81.004zm4.21.005a1.405 1.405 0 10-2.81-.004 1.405 1.405 0 002.81.004z" fill="#C4C4C4"/><path d="M16.64 88.84V41.69a7.559 7.559 0 017.56-7.56h92.88a7.57 7.57 0 017.56 7.56V113a7.56 7.56 0 01-7.56 7.56H24.2a7.546 7.546 0 01-5.349-2.211A7.566 7.566 0 0116.64 113V99.73" stroke="#007B64" stroke-width="2" stroke-miterlimit="10" stroke-linecap="round"/><path d="M67.3 82.28a8.26 8.26 0 011.6 5.15 7.621 7.621 0 01-3.37 6.66c-2.24 1.56-5.513 2.337-9.82 2.33h-17v-33h16.1c4 0 7.083.77 9.25 2.31A7.311 7.311 0 0167.25 72a7.91 7.91 0 01-4.38 7.26 8.67 8.67 0 014.43 3.02zM46.25 69.21V77h7.58a7.63 7.63 0 004.28-1 3.281 3.281 0 001.46-2.92 3.24 3.24 0 00-1.46-2.9 7.82 7.82 0 00-4.28-1l-7.58.03zm13.44 20.48a3.39 3.39 0 001.53-3.06c0-2.727-2.023-4.093-6.07-4.1h-8.9v8.15h8.9a8.43 8.43 0 004.54-.99zm30.11-4.94v11.67h-7.62V84.65L69.4 63.46h8.09l8.81 14.65 8.8-14.65h7.49L89.8 84.75z" fill="#FFC463"/></svg>
